X:141
T:Julipolskan
R:Polska
C:Robert Boström
Z:Transcribed to abc by Robert Boström 20070709
M:3/4
L:1/8
K:D
|:"D"(3F2A2d2"A"(3e-ec|"G"(3d2B2G2"D"(3F-FA|"G"(3G-GB- (3Bde "D"(3agf|"Em"(3egf (3edB "A"A2|
"G"(3G2E2G2 "D"(3FED|"G"(3 B,DE (3FGA "Em"B2|"G"(3d-dB- (3Bgf "A"(3ece "To"+coda+|1"A" (3aef "D"d4:||2 "A"(3aef "D"d4-||
|:"Bm"(3d2d2B2 "A"(3cde|"D"f12/2-|"G"(3f2b2g2 "D"(3agf|"Em"(3e-eg (3fed "A"(3e-ec|"G"(3Bcd- (3dB-B "A"(3e-ec|
"D"(3deA- (3AB-B "G"(3G-GB|"D"(3 d2f2g2 "G"(3fed|1"A" (3ec-c "D"(d4:|2"A"(3ec-c "D"d4 "Da Capo"||
||+coda+(3a-a"Bm"d- (3dgf "A"(3 edA |"G"(3 B2d2a2 (3g-gf |"A"(3ec-c "D"d4||
(:musicend:)

(:title Höstdrömmar:)
Kanske från början en engelsk vals. Spelas allmänt i Ryssland (och i andra delar av Östeuropa). På ryska kallas den 'Osennij son' (= Höstdröm). Den här versionen är hämtad från en inspelning gjord på 50-talet med den legendariska sångerskan Lidija Ruslanova, till ackompanjemang av en blåsorkester. Spela andra delen snabbaren än den första! Öppnas som pdf eller med Finale!
(:title St Annes reel:)
Allmän i Kanada och USA. Den här versionen är upptecknad 2007 efter Roy Johnston, spelman på Prince Edward Island, Kanada.
(:music:)
